X: 1537
T: Ol Gonca-dehen
C: Şevki Bey
O: Turkey
F: http://compmusic.upf.edu/node/140
N: muhayyer--sarki--kapali_curcuna--ol_gonca-dehen--sevki_bey
N: makam= muhayyer
N: form= sarki
N: usul= kapali_curcuna = 10/8
M: 10/8
L: 1/16
K: C _2/4B ^3/4f  
Q: 1/4=168
%%MIDI tuningsystem comma53
d12 z2c'2 b2a2  | a4 b2a2 g2f2 e2d6  | \
w:  ARANAĞME  |   | 
c'8-c'2b2 a2g2 f2g2  | a12 z2A4B2  | 
w:   |   | 
c4 B2d2 B2B2 A2A6  | G6e2 =f2e2 d2d2 c2d2  | \
w:   |   | 
=f2e2 d2c2 d2f2 e2d2 c2BA  | 
w:   | 
e4 d2d2 c2c2 B2B4A2  | A12 z2f2 g2a2  | \
w:   |   | 
d12 z2c'2 b2a2  | a4 b2a2 g2f2 e2d6  | 
w:  ARANAĞME  |   | 
c'8-c'2b2 a2g2 f2g2  | a12 z2A4B2  | \
w:   |   | 
c4 B2d2 B2B2 A2A6  | G6e2 =f2e2 d2d2 c2d2  | 
w:   |   | 
=f2e2 d2c2 d2f2 e2d2 c2BA  | e4 d2d2 c2c2 B2B4A2  | \
w:   |   | 
A14g4a2  | 
w:  *  Ol   | 
a6a4a4a4z2  | a4 g2g2 f2f2 e2e4d2  | \
w:  gon ca  de hen   |  bir  *  gü *  lü  *  han  | 
g4 a2b4a2 g2c'2 b2a2  | 
w:  dân  *  o la *  cak  | 
a4 c'2b2 a2g2 f2g4a2  | a6a4a4a4z2  | \
w:  tır   SAZ *  *  *  *  Ol   |  gon ca  de hen   | 
a4 g2g2 f2f2 e2e4d2  | 
w:  bir  *  gü *  lü  *  han  | 
g4 a2b4a2 g2c'2 b2a2  | a4 b2a2 g2f2 g2a6  | \
w:  dân  *  o la *  cak  |  tır   SAZ *  *  *  *  Â  | 
a6a4a4a2 d'2a2  | 
w:  şık la rı  bül  | 
a4 g2g2 =f2f2 e2e4d2  | c4 d2e2 =f2e2 d2f2 e2d2  | \
w:  bül  *  gi *  bi  *  nâ  |  lân  *  o *  la *  cak  | 
d4 =f2e2 d2c2 B2A4B2  | 
w:  tır   SAZ *  *  *  *  Â  | 
c4 B2d2 B2B2 A2A6  | G4 G2e2 =f2e2 d2d2 c2d2  | \
w:  şık *  la *  rı  *  bül  |  bül  *  gi *  bi  *  nâ  | 
=f2e2 d2c2 d2f2 e2d2 c2BA  | 
w:  lân   | 
e4 d2d2 c2c2 B2B4A2  | A6c'4c'2 b2c'6  | \
w:  *  *  o *  la *  cak  |  tır   SAZ *  *  Ah  | 
c'6c'4c'4c'4b2  | e'4 c'2c'2 b2b2 a2a4g2  | 
w:  vâ li miz  ol   |  saç *  la *  rı  *  Ley  | 
g6g4g4a2 b2c'2  | b4 c'14b2  | b4 a2a2 g2g2 f2f2 e2d2  | \
w:  lâ  i le  â  |  hir    |   | 
d12 z2b4a2  | 
w:  *  Ah  | 
a4 g2b4b2 a2a4g2  | a4 g2g2 f2f2 e2e4d2  | \
w:  vâ *  li miz  *  ol   |  saç *  la *  rı  *  Ley  | 
c'2b2 a2g2 a2c'2 b2a2 g2f2  | 
w:  lâ   | 
b4 a2a2 g2g2 f2g2 f2e2  | e12 z2g4a2  | \
w:  *  *  i *  le  *  â  |  hir   Mec  | 
a6a4a4a2 d'2a2  | a4 g2g2 =f2f2 e2e4d2  | 
w:  şık la rı  bül  |  bül  *  gi *  bi  *  nâ  | 
c4 d2e2 =f2e2 d2f2 e2d2  | d4 =f2e2 d2c2 B2A4B2  | \
w:  lân  *  o *  la *  cak  |  tır   SAZ *  *  *  *  Â  | 
c4 B2d2 B2B2 A2A6  | 
w:  şık *  la *  rı  *  bül  | 
G4 G2e2 =f2e2 d2d2 c2d2  | =f2e2 d2c2 d2f2 e2d2 c2BA  | \
w:  bül  *  gi *  bi  *  nâ  |  lân   | 
e4 d2d2 c2c2 B2B4A2  | 
w:  *  *  o *  la *  cak  | 
A6|
w:  tır    | 


